src/main/resources/icons/HandlebarsIcons/icons/elements/openBlock.svg

<svg xmlns="http://www.w3.org/2000/svg" width="16" height="16" viewBox="0 0 16 16">
  <g fill="none" fill-opacity=".9" fill-rule="evenodd">
    <path fill="#7F8B91" d="M15.378 8.85L15.378 9.994 14.069 9.994 13.772 11.765 12.595 11.765 12.892 9.994 11.099 9.994 10.802 11.765 9.62499995 11.765 9.92199995 9.994 8.94299995 9.994 8.94299995 8.85 10.12 8.85 10.45 6.936 9.34999995 6.936 9.34999995 5.792 10.648 5.792 10.945 4.065 12.122 4.065 11.825 5.792 13.618 5.792 13.915 4.065 15.092 4.065 14.795 5.792 15.785 5.792 15.785 6.936 14.597 6.936 14.267 8.85 15.378 8.85zM11.616 6.903L11.275 8.883 13.112 8.883 13.453 6.903 11.616 6.903zM4.737 13C2.724 12.6261682 2.163 11.8785047 2.163 10.6869159 2.163 10.5116822 2.196 10.0794393 2.196 9.88084112 2.196 8.96962617 1.844 8.67757009.986 8.67757009L.5 8.67757009.5 7.32242991.986 7.32242991C1.844 7.32242991 2.196 7.03037383 2.196 6.11915888 2.196 5.92056075 2.163 5.48831776 2.163 5.31308411 2.163 4.12149533 2.724 3.37383178 4.737 3L5.034 4.17990654C3.868 4.53037383 3.692 4.85747664 3.692 5.57009346 3.692 5.80373832 3.725 6.18925234 3.725 6.43457944 3.725 7.28738318 3.318 7.74299065 2.581 8 3.318 8.25700935 3.725 8.71261682 3.725 9.56542056 3.725 9.81074766 3.692 10.1962617 3.692 10.4299065 3.692 11.1425234 3.868 11.4696262 5.034 11.8200935L4.737 13z"/>
    <path fill="#7F8B91" d="M8.737,13 C6.724,12.6261682 6.163,11.8785047 6.163,10.6869159 C6.163,10.5116822 6.196,10.0794393 6.196,9.88084112 C6.196,8.96962617 5.844,8.67757009 4.986,8.67757009 L4.5,8.67757009 L4.5,7.32242991 L4.986,7.32242991 C5.844,7.32242991 6.196,7.03037383 6.196,6.11915888 C6.196,5.92056075 6.163,5.48831776 6.163,5.31308411 C6.163,4.12149533 6.724,3.37383178 8.737,3 L9.034,4.17990654 C7.868,4.53037383 7.692,4.85747664 7.692,5.57009346 C7.692,5.80373832 7.725,6.18925234 7.725,6.43457944 C7.725,7.28738318 7.318,7.74299065 6.581,8 C7.318,8.25700935 7.725,8.71261682 7.725,9.56542056 C7.725,9.81074766 7.692,10.1962617 7.692,10.4299065 C7.692,11.1425234 7.868,11.4696262 9.034,11.8200935 L8.737,13 Z"/>
  </g>
</svg>

<svg xmlns="http://www.w3.org/2000/svg" width="16" height="16" viewBox="0 0 16 16"><rect id="frame" width="16" height="16" fill="none"/><g fill="#7F8B91" fill-opacity=".9" fill-rule="evenodd"><path d="M15.378 8.85v1.144h-1.309l-.297 1.771h-1.177l.297-1.771h-1.793l-.297 1.771H9.625l.297-1.771h-.979V8.85h1.177l.33-1.914h-1.1V5.792h1.298l.297-1.727h1.177l-.297 1.727h1.793l.297-1.727h1.177l-.297 1.727h.99v1.144h-1.188l-.33 1.914h1.111zm-3.762-1.947l-.341 1.98h1.837l.341-1.98h-1.837zM4.737 13c-2.013-.374-2.574-1.121-2.574-2.313 0-.175.033-.608.033-.806 0-.911-.352-1.203-1.21-1.203H.5V7.322h.486c.858 0 1.21-.292 1.21-1.203 0-.198-.033-.63-.033-.806 0-1.192.561-1.94 2.574-2.313l.297 1.18c-1.166.35-1.342.677-1.342 1.39 0 .234.033.62.033.865 0 .852-.407 1.308-1.144 1.565.737.257 1.144.713 1.144 1.565 0 .246-.033.631-.033.865 0 .713.176 1.04 1.342 1.39L4.737 13z"/><path d="M8.737 13c-2.013-.374-2.574-1.121-2.574-2.313 0-.175.033-.608.033-.806 0-.911-.352-1.203-1.21-1.203H4.5V7.322h.486c.858 0 1.21-.292 1.21-1.203 0-.198-.033-.63-.033-.806 0-1.192.561-1.94 2.574-2.313l.297 1.18c-1.166.35-1.342.677-1.342 1.39 0 .234.033.62.033.865 0 .852-.407 1.308-1.144 1.565.737.257 1.144.713 1.144 1.565 0 .246-.033.631-.033.865 0 .713.176 1.04 1.342 1.39L8.737 13z"/></g></svg>
